X:072
T:Admiral Collingwood’s March TS.072
M:2/4
L:1/8
Q:1/2=60
S:Thomas Sands’ MS,1810,Lincolnshire
R:march
N:Last 5 notes also shown in octavo.
O:England;Lincolnshire
Z:vmp.Ruairidh Greig, 2011
K:G
g|fedc|BGGd|gggg|a/g/f/e/ dg|
fedc|BAGB|cedF|G3:|
|:B|cA A/B/c/d/|BGGB|c/B/A/G/ c/B/A/G/|dDDB|
cA A/B/c/d/|BGGB|BG B/A/G/F/|”cr.in ms”G3:|

